X:1
T:The Four Masters
M:4/4
L:1/8
R:set dance
Z:Harry Seaman
Z:To David James
K:D
(3FG^G|A^GA_B =B=Ged|cAfe dAAG|FDA_B =BEGF|EDCB, A,B, (3CB,A,|!
FDA_B =BGed|cAfe dAAG|FAcB AG (3A,B,C|(3DFE DC D2:||!
|:F2|Bcdc BAFA|BcdB AAFA|BcdB AFDF|EDCB, A,B, (3CB,A,|!
FDA_B =BGed|cAfe dAAG|FDA_B =BEGF|EDCB, A,B, (3CB,A,|!
FDA_B =BGed|cAfe dAAG|FAcB AG (3A,B,C|(3DFE DC D2:||
